X: 23955
T: Lochiel's Awa' Tae France
R: reel
M: 4/4
K: Adorian
g|eAA/AA e2dc|BGG/G/G Bddg|eAA/AA e2dc|BGAG geeg:|:
dega bgab|gdd/d/d gdde|dega bgab|gee/e/e geeg|
dega bgab|gdd/d/d dega|bgae degd|BAA/A/A geeg||

